X: 182
T:We won't go Home Till Morning
M:6/8
L:1/8
A:English
K:G
GA|B2 BAB| c2 c BcB| A2 A AGA| B2 A  GDG| B2 B BAB|c2 b efg| d2 c B2 A| G G2:|
|:G/B/:| d2 B e2 2|d3 d2 G/B/| d2 B e2 e| d3 d2 G/A/|B2 B BAB| c2 d efg|d2 c B2 A| G3 G3:|

